crowdsource-fe/public/images/tts_contribute_icon.svg

<svg width="130" height="130" viewBox="0 0 130 130" fill="none" xmlns="http://www.w3.org/2000/svg">
<circle cx="65" cy="65" r="65" fill="#42B2C6"/>
<path fill-rule="evenodd" clip-rule="evenodd" d="M21.8074 54.9662C21.0055 55.7682 21.0499 57.0703 21.7505 57.9621C23.4237 60.092 24.4215 62.7774 24.4215 65.696C24.4215 68.411 23.558 70.9244 22.0905 72.9763C21.4505 73.8713 21.4392 75.1237 22.2172 75.9016C23.0016 76.6861 24.2856 76.6893 24.9652 75.8124C27.1319 73.0165 28.4215 69.5068 28.4215 65.696C28.4215 61.6152 26.9428 57.8799 24.492 54.9965C23.7979 54.18 22.5652 54.2085 21.8074 54.9662ZM29.115 79.9851C28.411 80.8328 28.4056 82.0901 29.1847 82.8692C29.9678 83.6523 31.2445 83.6548 31.9634 82.8125C35.8952 78.2059 38.2689 72.2292 38.2689 65.6981C38.2689 58.9091 35.704 52.7192 31.4905 48.0445C30.7637 47.2382 29.5171 47.2566 28.7495 48.0241C27.9558 48.8178 27.9798 50.1045 28.72 50.9484C32.1747 54.8865 34.2689 60.0477 34.2689 65.6981C34.2689 71.1297 32.3336 76.1094 29.115 79.9851ZM36.5999 87.4647C35.8706 88.2919 35.8672 89.5517 36.647 90.3314C37.4294 91.1139 38.7028 91.1159 39.44 90.2907C45.2739 83.7606 48.8202 75.1433 48.8202 65.6978C48.8202 56.0003 45.0822 47.176 38.9685 40.5869C38.2261 39.7868 36.9735 39.8002 36.2017 40.5719C35.4118 41.3619 35.4279 42.6422 36.1823 43.4661C41.5469 49.324 44.8202 57.1286 44.8202 65.6978C44.8202 74.0423 41.7162 81.6618 36.5999 87.4647Z" fill="white"/>
<mask id="mask0" style="mask-type:alpha" maskUnits="userSpaceOnUse" x="0" y="0" width="130" height="130">
<circle cx="65" cy="65" r="65" fill="#E5E5E5"/>
</mask>
<g mask="url(#mask0)">
<path fill-rule="evenodd" clip-rule="evenodd" d="M152.291 5.57007H98.8981V7.42721H100.755C98.8981 7.42721 98.8981 7.42842 98.8981 7.42842V41.7183C94.8327 38.9827 90.7227 37.7855 86.8195 37.8309C81.9437 37.8877 77.5767 39.8817 74.2121 42.8971C67.5828 48.8385 64.4562 59.2022 69.4575 67.3622C73.8813 74.5798 77.7235 80.5178 80.4611 84.6534C81.83 86.7213 82.923 88.3389 83.6747 89.4409C84.0506 89.9919 84.3411 90.414 84.5382 90.6991C84.6368 90.8416 84.712 90.9499 84.7628 91.0229L84.841 91.1351C84.8637 91.1675 84.8874 91.1992 84.9122 91.2302C87.232 94.1302 90.6979 95.103 93.7845 94.0998C95.261 93.62 96.5774 92.7154 97.6092 91.4552L106.778 123.963H152.291V5.57007ZM88.7818 75.2116C86.7213 73.151 85.5597 70.359 85.5505 67.4451C85.5321 65.2709 86.1566 63.1397 87.3454 61.3192C88.5343 59.4988 90.2346 58.0702 92.2327 57.2129C91.6016 55.9543 90.5627 54.9466 89.2854 54.3541C88.0081 53.7616 86.5678 53.6193 85.1992 53.9503C83.8307 54.2813 82.6147 55.0662 81.7494 56.177C80.8841 57.2877 80.4206 58.6588 80.4344 60.0668C80.4344 60.5283 80.2511 60.9709 79.9247 61.2973C79.5984 61.6236 79.1558 61.8069 78.6943 61.8069C78.2327 61.8069 77.7901 61.6236 77.4638 61.2973C77.1374 60.9709 76.9541 60.5283 76.9541 60.0668C76.9597 57.6588 77.8566 55.3383 79.4718 53.5525C81.0871 51.7667 83.3063 50.6421 85.7016 50.3957C88.0969 50.1492 90.4986 50.7983 92.4437 52.2178C94.3887 53.6373 95.7393 55.7266 96.2351 58.083C96.3194 58.5295 96.2292 58.9913 95.9832 59.3733C95.7371 59.7553 95.354 60.0284 94.9126 60.1364C93.1328 60.5638 91.5701 61.6259 90.5177 63.1235C89.4652 64.621 88.9953 66.4511 89.196 68.2704C89.3967 70.0897 90.2543 71.7733 91.6079 73.0054C92.9615 74.2375 94.7182 74.9334 96.5483 74.9626C97.0098 74.9626 97.4525 75.1459 97.7788 75.4722C98.1052 75.7986 98.2885 76.2412 98.2885 76.7027C98.2796 77.1615 98.0934 77.5989 97.7689 77.9233C97.4445 78.2478 97.0071 78.434 96.5483 78.4429C93.6343 78.4337 90.8423 77.2721 88.7818 75.2116Z" fill="white"/>
</g>
</svg>

<svg xmlns="http://www.w3.org/2000/svg" width="130" height="130" fill="none" xmlns:v="https://vecta.io/nano"><circle cx="65" cy="65" r="65" fill="#42b2c6"/><path fill-rule="evenodd" d="M21.807 54.966c-.802.802-.758 2.104-.057 2.996 1.673 2.13 2.671 4.815 2.671 7.734a12.47 12.47 0 0 1-2.331 7.28c-.64.895-.651 2.147.127 2.925.785.784 2.068.788 2.748-.089 2.167-2.796 3.456-6.305 3.456-10.116 0-4.081-1.479-7.816-3.93-10.699-.694-.817-1.927-.788-2.685-.03zm7.308 25.019c-.704.848-.709 2.105.07 2.884s2.06.786 2.779-.057a26.27 26.27 0 0 0 6.306-17.114 26.28 26.28 0 0 0-6.778-17.654c-.727-.806-1.973-.788-2.741-.02-.794.794-.77 2.08-.029 2.924a22.29 22.29 0 0 1 5.549 14.75c0 5.432-1.935 10.411-5.154 14.287zm7.485 7.48c-.729.827-.733 2.087.047 2.867s2.056.784 2.793-.041c5.834-6.53 9.38-15.147 9.38-24.593 0-9.697-3.738-18.522-9.852-25.111-.742-.8-1.995-.787-2.767-.015-.79.79-.774 2.07-.019 2.894 5.365 5.858 8.638 13.663 8.638 22.232a32.8 32.8 0 0 1-8.22 21.767z" fill="#fff"/><mask id="A" maskUnits="userSpaceOnUse" x="0" y="0" width="130" height="130" mask-type="alpha"><circle cx="65" cy="65" r="65" fill="#e5e5e5"/></mask><g mask="url(#A)"><path fill-rule="evenodd" d="M152.291 5.57H98.898v1.857h1.857l-1.857.001v34.29c-4.065-2.736-8.175-3.933-12.079-3.887-4.876.057-9.243 2.051-12.607 5.066-6.629 5.941-9.756 16.305-4.755 24.465a593.44 593.44 0 0 0 11.004 17.291l3.214 4.787.864 1.258.225.324.078.112c.023.032.046.064.071.095 2.32 2.9 5.786 3.873 8.872 2.87 1.477-.48 2.793-1.384 3.825-2.645l9.169 32.508h45.513V5.57zM88.782 75.212c-2.061-2.061-3.222-4.853-3.231-7.767-.018-2.174.606-4.305 1.795-6.126s2.889-3.249 4.887-4.106a6.23 6.23 0 0 0-7.033-3.263 6.23 6.23 0 0 0-4.765 6.117 1.74 1.74 0 0 1-1.74 1.74 1.74 1.74 0 0 1-1.74-1.74c.006-2.408.903-4.729 2.518-6.514s3.834-2.91 6.23-3.157 4.797.403 6.742 1.822 3.296 3.509 3.791 5.865c.084.447-.006.908-.252 1.29s-.629.655-1.071.763c-1.78.427-3.343 1.489-4.395 2.987s-1.522 3.328-1.322 5.147a7.52 7.52 0 0 0 7.352 6.692 1.74 1.74 0 0 1 1.74 1.74c-.009.459-.195.896-.52 1.221s-.762.511-1.221.52c-2.914-.009-5.706-1.171-7.766-3.231z" fill="#fff"/></g></svg>
